resources/images/bin.svg

<svg xmlns="http://www.w3.org/2000/svg" xmlns:xlink="http://www.w3.org/1999/xlink" preserveAspectRatio="none" width="285" height="427" viewBox="0 0 285 427"><defs><linearGradient id="a" gradientUnits="userSpaceOnUse" x1="15.65" y1="181.85" x2="254.55" y2="181.85" spreadMethod="pad"><stop offset="0%" stop-color="#484848"/><stop offset="25.882%" stop-color="#EEE"/><stop offset="100%" stop-color="#6F6F6F"/></linearGradient><radialGradient id="b" gradientUnits="userSpaceOnUse" cx="0" cy="0" r="101.925" fx="2.398" fy="0" gradientTransform="matrix(1 0 0 1.10473 98.8 70.75)" spreadMethod="pad"><stop offset="0%" stop-color="#EEE"/><stop offset="25.882%" stop-color="#EEE"/><stop offset="100%" stop-color="#6F6F6F"/></radialGradient><radialGradient id="c" gradientUnits="userSpaceOnUse" cx="0" cy="0" r="131.963" fx="0" fy="-3.105" gradientTransform="matrix(0 -1 .61428 0 163.65 148.55)" spreadMethod="pad"><stop offset="0%" stop-color="#7E7E7E"/><stop offset="100%" stop-color="#1E1E1E"/></radialGradient><g id="d"><path fill="url(#a)" d="M231.9 124q-9.15 3.3-21.5 5.65-30.6 6.05-71.6 5.2-33.5-.7-60.45-5.6-4.75-.9-9.25-1.9-31.65-7.1-38.45-17.65-.1-.1-.2-.3v282.3q.1.1.2.3 10.6 13.75 42.75 21.7 30 7.5 68.45 7.7 38.65.3 68.75-7.1 32.9-8.1 44-22.6V109.4q-6.3 8.75-22.7 14.6z"/><path fill="url(#b)" d="M210.4 129.65q12.35-2.35 21.5-5.65 16.4-5.85 22.7-14.6-2.35-47.6-37-76.3-31.35-26-75.25-26.9Q98 5.25 67.25 30.35 33 58.3 31.4 107.4l-.95 2q.1.2.2.3 6.8 10.55 38.45 17.65 4.5 1 9.25 1.9 26.95 4.9 60.45 5.6 41 .85 71.6-5.2M167.65 24.4q13.9 0 26 13.05 12.15 13.05 15.4 31.65 3.1 18.6-4.7 31.75-7.4 13.15-21.4 13.15-13.95 0-26.1-13.15-12.1-13.15-15.2-31.75-3.1-18.6 4.55-31.65 7.5-13.05 21.45-13.05z"/><path fill="url(#c)" d="M193.65 37.45q-12.1-13.05-26-13.05-13.95 0-21.45 13.05-7.65 13.05-4.55 31.65 3.1 18.6 15.2 31.75Q169 114 182.95 114q14 0 21.4-13.15 7.8-13.15 4.7-31.75-3.25-18.6-15.4-31.65z"/></g><path id="e" stroke="#333" stroke-width="2" stroke-linejoin="round" stroke-linecap="round" fill="none" d="M167.65 24.4q13.9 0 26 13.05 12.15 13.05 15.4 31.65 3.1 18.6-4.7 31.75-7.4 13.15-21.4 13.15-13.95 0-26.1-13.15-12.1-13.15-15.2-31.75-3.1-18.6 4.55-31.65 7.5-13.05 21.45-13.05zm-137.2 85q.1.2.2.3 6.8 10.55 38.45 17.65 4.5 1 9.25 1.9 26.95 4.9 60.45 5.6 41 .85 71.6-5.2 12.35-2.35 21.5-5.65 16.4-5.85 22.7-14.6-2.35-47.6-37-76.3-31.35-26-75.25-26.9Q98 5.25 67.25 30.35 33 58.3 31.4 107.4m-.95 2v282.3q.1.1.2.3 10.6 13.75 42.75 21.7 30 7.5 68.45 7.7 38.65.3 68.75-7.1 32.9-8.1 44-22.6V109.4"/></defs><g><use xlink:href="#d"/><use xlink:href="#e"/></g></svg>

<svg xmlns="http://www.w3.org/2000/svg" version="1.1" xmlns:xlink="http://www.w3.org/1999/xlink" preserveAspectRatio="none" x="0px" y="0px" width="285px" height="427px" viewBox="0 0 285 427">
<defs>
<linearGradient id="Gradient_1" gradientUnits="userSpaceOnUse" x1="15.649999999999991" y1="181.85" x2="254.55" y2="181.85" spreadMethod="pad">
<stop  offset="0%" stop-color="#484848"/>

<stop  offset="25.88235294117647%" stop-color="#EEEEEE"/>

<stop  offset="100%" stop-color="#6F6F6F"/>
</linearGradient>

<radialGradient id="Gradient_2" gradientUnits="userSpaceOnUse" cx="0" cy="0" r="101.92500000000003" fx="2.3982352941176477" fy="-2.9369911765433884e-16" gradientTransform="matrix( 0.9999999999999997, 0, 0, 1.1047338729457932, 98.8,70.75) " spreadMethod="pad">
<stop  offset="0%" stop-color="#EEEEEE"/>

<stop  offset="25.88235294117647%" stop-color="#EEEEEE"/>

<stop  offset="100%" stop-color="#6F6F6F"/>
</radialGradient>

<radialGradient id="Gradient_3" gradientUnits="userSpaceOnUse" cx="0" cy="0" r="131.9625" fx="-1.901264155676266e-16" fy="-3.105" gradientTransform="matrix( 0, -1, 0.6142843610874301, 0, 163.65,148.55) " spreadMethod="pad">
<stop  offset="0%" stop-color="#7E7E7E"/>

<stop  offset="100%" stop-color="#1E1E1E"/>
</radialGradient>

<g id="Layer0_0_FILL">
<path fill="url(#Gradient_1)" stroke="none" d="
M 231.9 124
Q 222.75 127.3 210.4 129.65 179.8 135.7 138.8 134.85 105.3 134.15 78.35 129.25 73.6 128.35 69.1 127.35 37.45 120.25 30.65 109.7 30.55 109.6 30.45 109.4
L 30.45 391.7
Q 30.55 391.8 30.65 392 41.25 405.75 73.4 413.7 103.4 421.2 141.85 421.4 180.5 421.7 210.6 414.3 243.5 406.2 254.6 391.7
L 254.6 109.4
Q 248.3 118.15 231.9 124 Z"/>

<path fill="url(#Gradient_2)" stroke="none" d="
M 210.4 129.65
Q 222.75 127.3 231.9 124 248.3 118.15 254.6 109.4 252.25 61.8 217.6 33.1 186.25 7.1 142.35 6.2 98 5.25 67.25 30.35 33 58.3 31.4 107.4
L 30.45 109.4
Q 30.55 109.6 30.65 109.7 37.45 120.25 69.1 127.35 73.6 128.35 78.35 129.25 105.3 134.15 138.8 134.85 179.8 135.7 210.4 129.65
M 167.65 24.4
Q 181.55 24.4 193.65 37.45 205.8 50.5 209.05 69.1 212.15 87.7 204.35 100.85 196.95 114 182.95 114 169 114 156.85 100.85 144.75 87.7 141.65 69.1 138.55 50.5 146.2 37.45 153.7 24.4 167.65 24.4 Z"/>

<path fill="url(#Gradient_3)" stroke="none" d="
M 193.65 37.45
Q 181.55 24.4 167.65 24.4 153.7 24.4 146.2 37.45 138.55 50.5 141.65 69.1 144.75 87.7 156.85 100.85 169 114 182.95 114 196.95 114 204.35 100.85 212.15 87.7 209.05 69.1 205.8 50.5 193.65 37.45 Z"/>
</g>

<path id="Layer0_0_1_STROKES" stroke="#333333" stroke-width="2" stroke-linejoin="round" stroke-linecap="round" fill="none" d="
M 167.65 24.4
Q 181.55 24.4 193.65 37.45 205.8 50.5 209.05 69.1 212.15 87.7 204.35 100.85 196.95 114 182.95 114 169 114 156.85 100.85 144.75 87.7 141.65 69.1 138.55 50.5 146.2 37.45 153.7 24.4 167.65 24.4 Z
M 30.45 109.4
Q 30.55 109.6 30.65 109.7 37.45 120.25 69.1 127.35 73.6 128.35 78.35 129.25 105.3 134.15 138.8 134.85 179.8 135.7 210.4 129.65 222.75 127.3 231.9 124 248.3 118.15 254.6 109.4 252.25 61.8 217.6 33.1 186.25 7.1 142.35 6.2 98 5.25 67.25 30.35 33 58.3 31.4 107.4
M 30.45 109.4
L 30.45 391.7
Q 30.55 391.8 30.65 392 41.25 405.75 73.4 413.7 103.4 421.2 141.85 421.4 180.5 421.7 210.6 414.3 243.5 406.2 254.6 391.7
L 254.6 109.4"/>
</defs>

<g transform="matrix( 1, 0, 0, 1, 0,0) ">
<use xlink:href="#Layer0_0_FILL"/>

<use xlink:href="#Layer0_0_1_STROKES"/>
</g>
</svg>
